icons/mobile/24/svg/whats-new-24.svg

<svg width="24" height="24" viewBox="0 0 24 24" fill="none" xmlns="http://www.w3.org/2000/svg">
<path fill-rule="evenodd" clip-rule="evenodd" d="M9.50098 2C10.4915 2.00028 11.3827 2.42676 12 3.10645C12.6174 2.42646 13.509 2 14.5 2H14.8135C16.6775 2.00026 18.1885 3.51091 18.1885 5.375C18.1885 6.05255 17.9872 6.68233 17.6436 7.21094C18.2233 7.25441 18.7901 7.30441 19.3438 7.3584L19.5674 7.39062C20.6707 7.60317 21.4998 8.56432 21.5 9.72266V10.625C21.5 11.627 20.878 12.4823 20 12.8311V18.4971C20 20.0293 18.8831 21.3531 17.3594 21.5889C15.3339 21.9016 13.5188 22 12 22C10.0175 22 8.22581 21.8318 6.66602 21.5918C5.1411 21.3572 4.00001 20.0559 4 18.499V12.8311C3.12195 12.4823 2.5 11.627 2.5 10.625V9.72266C2.50017 8.48765 3.44364 7.47759 4.65527 7.3584C5.20882 7.30414 5.7757 7.25446 6.35547 7.21094C6.01215 6.68246 5.8125 6.05229 5.8125 5.375C5.8125 3.51075 7.32325 2 9.1875 2H9.50098ZM5.75 13V18.499C5.75001 19.178 6.24677 19.7568 6.93164 19.8623C8.18074 20.0545 9.58647 20.1969 11.125 20.2373V13H5.75ZM12.875 13V20.2363C14.1227 20.2036 15.5426 20.0986 17.0918 19.8594L17.2139 19.835C17.8127 19.6846 18.25 19.1343 18.25 18.4971V13H12.875ZM12.875 11.25H19.125C19.4698 11.25 19.75 10.9698 19.75 10.625V9.72266C19.7498 9.40452 19.5073 9.132 19.1748 9.09961C17.2347 8.91042 15.1277 8.78166 12.875 8.75488V11.25ZM11.125 8.75488C8.87182 8.7815 6.765 8.90958 4.82617 9.09961C4.49231 9.13264 4.25017 9.40614 4.25 9.72266V10.625C4.25 10.9698 4.53025 11.25 4.875 11.25H11.125V8.75488ZM9.1875 3.75C8.28975 3.75 7.5625 4.47725 7.5625 5.375C7.5625 6.27275 8.28975 7 9.1875 7H11.125V5.36133C11.1177 4.4702 10.3937 3.75052 9.50098 3.75H9.1875ZM14.5 3.75C13.6065 3.75 12.8818 4.4704 12.875 5.3623C12.875 5.36654 12.876 5.37077 12.876 5.375V7H14.8135C15.711 6.99974 16.4385 6.27259 16.4385 5.375C16.4385 4.47741 15.711 3.75026 14.8135 3.75H14.5Z" fill="black"/>
</svg>

<!-- This Source Code Form is subject to the terms of the Mozilla Public
   - License, v. 2.0. If a copy of the MPL was not distributed with this
   - file, You can obtain one at http://mozilla.org/MPL/2.0/. -->
<svg xmlns="http://www.w3.org/2000/svg" width="24" height="24" fill="none" viewBox="0 0 24 24">
    <path fill="#000" fill-rule="evenodd" d="M9.501 2c.99 0 1.882.427 2.499 1.106A3.37 3.37 0 0 1 14.5 2h.313a3.375 3.375 0 0 1 2.83 5.21q.87.066 1.7.148l.224.033A2.38 2.38 0 0 1 21.5 9.723v.902a2.37 2.37 0 0 1-1.5 2.206v5.666a3.13 3.13 0 0 1-2.64 3.092 35.1 35.1 0 0 1-10.694.003A3.13 3.13 0 0 1 4 18.499v-5.668a2.37 2.37 0 0 1-1.5-2.206v-.902a2.38 2.38 0 0 1 2.155-2.365 75 75 0 0 1 1.7-.147A3.375 3.375 0 0 1 9.187 2zM5.75 13v5.499c0 .679.497 1.258 1.182 1.363a33 33 0 0 0 4.193.375V13zm7.125 0v7.236a33 33 0 0 0 4.217-.377l.122-.024a1.38 1.38 0 0 0 1.036-1.338V13zm0-1.75h6.25c.345 0 .625-.28.625-.625v-.902a.63.63 0 0 0-.575-.623 74 74 0 0 0-6.3-.345zm-1.75-2.495a74 74 0 0 0-6.299.345.63.63 0 0 0-.576.623v.902c0 .345.28.625.625.625h6.25zM9.188 3.75a1.625 1.625 0 1 0 0 3.25h1.937V5.361A1.625 1.625 0 0 0 9.501 3.75zm5.312 0c-.893 0-1.618.72-1.625 1.612l.001.013V7h1.938a1.625 1.625 0 0 0 0-3.25z" clip-rule="evenodd" />
</svg>
